icon/lg/aws-aurora.svg

<?xml version="1.0" encoding="UTF-8"?>
<svg viewBox="0 0 256 256" version="1.1" xmlns="http://www.w3.org/2000/svg" xmlns:xlink="http://www.w3.org/1999/xlink" preserveAspectRatio="xMidYMid" height="1em" width="1em">
  <defs>
    <linearGradient x1="0%" y1="100%" x2="100%" y2="0%" id="linearGradient-1">
      <stop stop-color="#2E27AD" offset="0%"/>
      <stop stop-color="#527FFF" offset="100%"/>
    </linearGradient>
  </defs>
  <g>
    <rect fill="url(#linearGradient-1)" x="0" y="0" width="256" height="256"/>
    <path d="M144.291538,57.7444026 L134.665814,57.7444026 L134.665814,51.2866416 L144.291538,51.2866416 L144.291538,41.6 L150.708687,41.6 L150.708687,51.2866416 L160.334411,51.2866416 L160.334411,57.7444026 L150.708687,57.7444026 L150.708687,67.4310445 L144.291538,67.4310445 L144.291538,57.7444026 Z M182.794433,93.2620886 L173.168709,93.2620886 L173.168709,86.8043277 L182.794433,86.8043277 L182.794433,77.1176861 L189.211583,77.1176861 L189.211583,86.8043277 L198.837307,86.8043277 L198.837307,93.2620886 L189.211583,93.2620886 L189.211583,102.94873 L182.794433,102.94873 L182.794433,93.2620886 Z M166.084177,195.307629 C159.955799,179.737967 145.812402,165.505062 130.334238,159.334671 C145.812402,153.167509 159.955799,138.934604 166.084177,123.361713 C172.212554,138.934604 186.355951,153.167509 201.830907,159.334671 C186.355951,165.505062 172.212554,179.737967 166.084177,195.307629 L166.084177,195.307629 Z M217.591425,156.105791 C195.022311,156.105791 169.292751,130.213398 169.292751,107.501452 C169.292751,105.71911 167.858518,104.272571 166.084177,104.272571 C164.309835,104.272571 162.875602,105.71911 162.875602,107.501452 C162.875602,130.213398 137.142833,156.105791 114.573719,156.105791 C112.802586,156.105791 111.365145,157.552329 111.365145,159.334671 C111.365145,161.120242 112.802586,162.563552 114.573719,162.563552 C137.142833,162.563552 162.875602,188.455945 162.875602,211.171119 C162.875602,212.953461 164.309835,214.4 166.084177,214.4 C167.858518,214.4 169.292751,212.953461 169.292751,211.171119 C169.292751,188.455945 195.022311,162.563552 217.591425,162.563552 C219.362559,162.563552 220.8,161.120242 220.8,159.334671 C220.8,157.552329 219.362559,156.105791 217.591425,156.105791 L217.591425,156.105791 Z M41.6171491,92.4903862 C50.9605187,99.3291552 69.1146339,102.94873 86.5371942,102.94873 C103.959755,102.94873 122.11387,99.3291552 131.457239,92.4903862 L131.457239,123.416604 C126.833683,129.603139 109.831446,135.699266 87.1789091,135.699266 C61.102823,135.699266 41.6171491,127.497909 41.6171491,120.165121 L41.6171491,92.4903862 Z M86.5371942,67.4310445 C114.368371,67.4310445 131.457239,75.8939402 131.457239,81.9610067 C131.457239,88.0280733 114.368371,96.4909693 86.5371942,96.4909693 C58.7060179,96.4909693 41.6171491,88.0280733 41.6171491,81.9610067 C41.6171491,75.8939402 58.7060179,67.4310445 86.5371942,67.4310445 L86.5371942,67.4310445 Z M131.457239,188.61416 C131.457239,196.05673 112.241086,204.384012 86.5211514,204.384012 C60.8204685,204.384012 41.6171491,196.05673 41.6171491,188.61416 L41.6171491,167.981613 C51.0760272,175.20139 69.5927117,179.024385 87.3617978,179.024385 C99.7180189,179.024385 111.666751,177.267874 120.994077,174.07774 L118.934172,167.96224 C110.251769,170.929581 99.037801,172.566624 87.3617978,172.566624 C61.1798288,172.566624 41.6171491,164.365267 41.6171491,157.032479 L41.6171491,131.133628 C51.0503587,138.34049 69.4868285,142.157027 87.1789091,142.157027 C106.135168,142.157027 122.393016,138.227479 131.457239,132.005426 L131.457239,141.695297 L137.874388,141.695297 L137.874388,81.9610067 C137.874388,68.3286733 111.426108,60.9732832 86.5371942,60.9732832 C62.6621904,60.9732832 37.4139165,67.7603901 35.3989315,80.3465664 L35.2,80.3465664 L35.2,188.61416 C35.2,203.050485 61.6418637,210.841774 86.5211514,210.841774 C111.416482,210.841774 137.874388,203.050485 137.874388,188.61416 L137.874388,177.212983 L131.457239,177.212983 L131.457239,188.61416 Z" fill="#FFFFFF"/>
  </g>
</svg>

<svg width="256" height="256" xmlns="http://www.w3.org/2000/svg" preserveAspectRatio="xMidYMid"><defs><linearGradient x1="0%" y1="100%" x2="100%" y2="0%" id="a"><stop stop-color="#2E27AD" offset="0%"/><stop stop-color="#527FFF" offset="100%"/></linearGradient></defs><path fill="url(#a)" d="M0 0h256v256H0z"/><path d="M144.292 57.744h-9.626v-6.457h9.626V41.6h6.417v9.687h9.625v6.457h-9.625v9.687h-6.417v-9.687Zm38.502 35.518h-9.625v-6.458h9.625v-9.686h6.418v9.686h9.625v6.458h-9.625v9.687h-6.418v-9.687Zm-16.71 102.046c-6.128-15.57-20.272-29.803-35.75-35.973 15.478-6.167 29.622-20.4 35.75-35.973 6.129 15.573 20.272 29.806 35.747 35.973-15.475 6.17-29.618 20.403-35.747 35.973Zm51.507-39.202c-22.569 0-48.298-25.893-48.298-48.605a3.218 3.218 0 0 0-3.209-3.228 3.218 3.218 0 0 0-3.208 3.228c0 22.712-25.733 48.605-48.302 48.605-1.771 0-3.209 1.446-3.209 3.229a3.218 3.218 0 0 0 3.209 3.229c22.569 0 48.302 25.892 48.302 48.607a3.218 3.218 0 0 0 3.208 3.229 3.218 3.218 0 0 0 3.209-3.229c0-22.715 25.73-48.607 48.298-48.607a3.218 3.218 0 0 0 3.209-3.23c0-1.782-1.437-3.228-3.209-3.228ZM41.617 92.49c9.344 6.84 27.498 10.459 44.92 10.459 17.423 0 35.577-3.62 44.92-10.459v30.927c-4.623 6.186-21.626 12.282-44.278 12.282-26.076 0-45.562-8.201-45.562-15.534V92.49Zm44.92-25.059c27.831 0 44.92 8.463 44.92 14.53s-17.089 14.53-44.92 14.53c-27.831 0-44.92-8.463-44.92-14.53s17.089-14.53 44.92-14.53Zm44.92 121.183c0 7.443-19.216 15.77-44.936 15.77-25.7 0-44.904-8.327-44.904-15.77v-20.632c9.459 7.22 27.976 11.042 45.745 11.042 12.356 0 24.305-1.756 33.632-4.946l-2.06-6.116c-8.682 2.968-19.896 4.605-31.572 4.605-26.182 0-45.745-8.202-45.745-15.535v-25.898c9.433 7.206 27.87 11.023 45.562 11.023 18.956 0 35.214-3.93 44.278-10.152v9.69h6.417V81.961c0-13.632-26.448-20.988-51.337-20.988-23.875 0-49.123 6.787-51.138 19.374H35.2v108.267c0 14.436 26.442 22.228 51.321 22.228 24.895 0 51.353-7.792 51.353-22.228v-11.401h-6.417v11.401Z" fill="#FFF"/></svg>
